src/lib/packages/icons/src/assets/line/headphones.svg

<svg width="24" height="24" viewBox="0 0 24 24" fill="none" xmlns="http://www.w3.org/2000/svg">
<path d="M21.1599 16.634C21.5399 15.094 21.75 13.505 21.75 12C21.75 6.624 17.376 2.25 12 2.25C6.624 2.25 2.25 6.624 2.25 12C2.25 13.505 2.46009 15.093 2.84009 16.634C2.84709 16.667 2.846 16.6999 2.854 16.7319C2.872 16.8049 2.89604 16.8721 2.91504 16.9441C2.93704 17.0291 2.95405 17.116 2.97705 17.2C2.98205 17.22 2.99693 17.233 3.00293 17.252C3.09793 17.598 3.18912 17.9489 3.29712 18.2759L3.77002 19.8091C4.13402 20.9881 5.22588 21.749 6.40088 21.749C6.66688 21.749 6.9359 21.7099 7.2019 21.6289L8.16699 21.334C8.61399 21.198 8.9819 20.895 9.2019 20.481C9.4209 20.068 9.4671 19.5949 9.3291 19.1479L7.84497 14.292C7.70797 13.845 7.40594 13.4781 6.99194 13.2581C6.57794 13.0381 6.10196 12.9931 5.65796 13.1311L4.71606 13.4199C4.39906 13.5169 4.11597 13.673 3.86597 13.864C3.79597 13.234 3.75 12.607 3.75 11.999C3.75 7.45002 7.451 3.74902 12 3.74902C16.549 3.74902 20.25 7.45002 20.25 11.999C20.25 12.608 20.204 13.235 20.134 13.865C19.884 13.674 19.6009 13.5179 19.2839 13.4209L18.342 13.1321C17.899 12.9951 17.4231 13.04 17.0081 13.259C16.5951 13.478 16.292 13.845 16.155 14.293L14.6709 19.147C14.5329 19.594 14.5791 20.068 14.7981 20.48C15.0181 20.894 15.386 21.196 15.832 21.333L16.7981 21.6279C17.0641 21.7099 17.3331 21.748 17.5991 21.748C18.7741 21.748 19.866 20.9871 20.23 19.8081L20.7009 18.283C20.8109 17.951 20.8999 17.6059 20.9929 17.2629C21.0019 17.2409 21.0159 17.223 21.0229 17.199C21.0459 17.115 21.063 17.0281 21.085 16.9431C21.104 16.8711 21.128 16.802 21.146 16.73C21.154 16.699 21.1529 16.667 21.1599 16.634ZM5.15503 14.855L6.09692 14.5659C6.12292 14.5579 6.1479 14.5549 6.1709 14.5549C6.2229 14.5549 6.26409 14.572 6.28809 14.584C6.32209 14.602 6.38391 14.646 6.40991 14.731L7.89404 19.5869C7.92004 19.6719 7.894 19.7419 7.875 19.7759C7.857 19.8099 7.81305 19.8709 7.72705 19.8979L6.76294 20.1931C6.10294 20.3951 5.4049 20.022 5.2019 19.365L4.72412 17.8169C4.58812 17.4079 4.47204 16.9861 4.36304 16.5601C4.34304 16.4831 4.32588 16.4061 4.30688 16.3291C4.17488 15.6881 4.53503 15.046 5.15503 14.855ZM19.2729 17.8191C19.2709 17.8241 19.2701 17.829 19.2681 17.834L18.7949 19.3669C18.5929 20.0239 17.8929 20.3951 17.2339 20.1951L16.269 19.8999C16.183 19.8739 16.1391 19.8131 16.1221 19.7781C16.1031 19.7441 16.077 19.6739 16.103 19.5879L17.5869 14.7329C17.6129 14.6469 17.675 14.603 17.709 14.585C17.733 14.572 17.7739 14.5559 17.8259 14.5559C17.8489 14.5559 17.8739 14.5589 17.8999 14.5669L18.842 14.8569C19.462 15.0469 19.822 15.689 19.688 16.332C19.668 16.409 19.6521 16.487 19.6321 16.563C19.5261 16.988 19.4089 17.4111 19.2729 17.8191Z" fill="currentColor"/>
</svg>

<svg xmlns="http://www.w3.org/2000/svg" width="24" height="24" fill="none"><path fill="currentColor" d="M21.16 16.634c.38-1.54.59-3.129.59-4.634 0-5.376-4.374-9.75-9.75-9.75S2.25 6.624 2.25 12c0 1.505.21 3.093.59 4.634.007.033.006.066.014.098.018.073.042.14.061.212.022.085.04.172.062.256.005.02.02.033.026.052.095.346.186.697.294 1.024l.473 1.533a2.758 2.758 0 0 0 3.432 1.82l.965-.295a1.738 1.738 0 0 0 1.035-.853c.219-.413.265-.886.127-1.333l-1.484-4.856a1.74 1.74 0 0 0-.853-1.034 1.734 1.734 0 0 0-1.334-.127l-.942.289c-.317.097-.6.253-.85.444-.07-.63-.116-1.257-.116-1.865 0-4.549 3.701-8.25 8.25-8.25 4.549 0 8.25 3.701 8.25 8.25 0 .609-.046 1.236-.116 1.866a2.703 2.703 0 0 0-.85-.444l-.942-.289a1.743 1.743 0 0 0-1.334.127 1.737 1.737 0 0 0-.853 1.034l-1.484 4.854c-.138.447-.092.921.127 1.333.22.414.588.716 1.034.853l.966.295a2.758 2.758 0 0 0 3.432-1.82l.47-1.525c.11-.332.2-.677.293-1.02.009-.022.023-.04.03-.064.023-.084.04-.17.062-.256.019-.072.043-.141.061-.213.008-.031.007-.063.014-.096ZM5.155 14.855l.942-.29a.25.25 0 0 1 .313.166l1.484 4.856a.253.253 0 0 1-.167.311l-.964.295a1.252 1.252 0 0 1-1.561-.828l-.478-1.548a18.61 18.61 0 0 1-.361-1.257c-.02-.077-.037-.154-.056-.23-.132-.642.228-1.284.848-1.475Zm14.118 2.964-.005.015-.473 1.533a1.254 1.254 0 0 1-1.561.828l-.965-.295a.24.24 0 0 1-.147-.122.245.245 0 0 1-.019-.19l1.484-4.855a.25.25 0 0 1 .313-.166l.942.29c.62.19.98.832.846 1.475-.02.077-.036.155-.056.231a16.98 16.98 0 0 1-.36 1.256Z"/></svg>
